resources/svg/major-sort-descending.svg

<svg xmlns="http://www.w3.org/2000/svg" viewBox="0 0 20 20" fill="currentColor"><path d="M12.3237 9H7.67626C7.11302 9 6.79751 8.39719 7.14549 7.98592L9.46923 5.23956C9.73949 4.92015 10.2605 4.92015 10.5308 5.23956L12.8545 7.98592C13.2025 8.39719 12.887 9 12.3237 9Z" fill="#5C5F62" fill-opacity="50%"/><path d="M7.67626 11H12.3237C12.887 11 13.2025 11.6028 12.8545 12.0141L10.5308 14.7604C10.2605 15.0799 9.73949 15.0799 9.46923 14.7604L7.14549 12.0141C6.79751 11.6028 7.11302 11 7.67626 11Z" fill="#5C5F62"/></svg>

<svg xmlns="http://www.w3.org/2000/svg" viewBox="0 0 20 20" fill="currentColor"><path d="M12.324 9h-4.648c-.563 0-.878-.603-.53-1.014l2.323-2.746a.708.708 0 0 1 1.062 0l2.323 2.746c.349.411.033 1.014-.53 1.014Z" fill-opacity="50%"/><path d="M7.676 11h4.648c.563 0 .879.603.53 1.014l-2.323 2.746a.708.708 0 0 1-1.062 0l-2.324-2.746c-.347-.411-.032-1.014.531-1.014Z"/></svg>
